X:205
T: ICH MUSS REISEN
N: E0783
O: Europa, Mitteleuropa, Deutschland, Hessen, Schwalbach, Hennethal
R: Abschieds - Lied, Liebe
M: 3/4
L: 1/16
K: D
D2FA | A4G2F2G2B2 | B4A4
D2FA | A4G2F2G2B2 | B4A4
A2Bc | d6e2d2B2 | A4z2
d2B2FE | F4A2AAB2FE | F4z4

@@@ Tune index: 4518
